!!!Genre:	Sher
!!!Mode:	Minor
!!!Listening/dance:	dance
!!!:	*B-:
!!!One_Mode:	no
**kern
*I"P1
*clefG2
*k[b-e-]
*g:
*M2/4
*>A
8d
=1
8.b-L
16gJk
8gL
8gJ
=2
2g
=3
8aL
8b-
8cc
8ddJ
=4
8ccL
8b-
8a
8gJ
=5
8b-L
8g
8g
8gJ
=6
4.g
8b-
=7
8aL
8dJ
8enL
8f#XJ
*>A1
=8
4g
4d
*>A2
=9:|!
4g
4r
*>bM
*B-:
=10!|:
*>B
4ff
4ee-
=11
2dd
=12
8dd
4cc
8cc
=13
4.cc
8b-
=14
4dd
4cc
=15
2b-
=16
8fL
8f
8g
8aJ
*>B1
=17
8b-L
8cc
8dd
8ee-J
*>B2
=18:|!
4b-
8r
*>eM
==
*-
